!!!COA:	Josquin des Prez
!!!CDT:	~1450-1521/08/27
!!!OTL@@FRE: Tant vous aimme
!!!AGN:	Chanson
!!!SCT:	NJE 28.33
!!!SCA:	New Josquin Edition 28.33
!!!voices:	4
**kern	**kern	**kern	**kern
*staff4	*staff3	*staff2	*staff1
*Ivox	*Ivox	*Ivox	*Ivox
*I"Bassus	*I"Tenor	*I"Altus	*I"Superius
*I'B	*I'T	*I'A	*I'S
*clefF4	*clefGv2	*clefGv2	*clefG2
*k[b-]	*k[b-]	*k[b-]	*k[b-]
*M2/1	*M2/1	*M2/1	*M2/1
*met(C|)	*met(C|)	*met(C|)	*met(C|)
=1-	=1-	=1-	=1-
!LO:TX:X=-50:Z=10:t=[B&colon; Modern reconstruction by David Fallows]	!	!	!
0r	0r	0e	0r
=2	=2	=2	=2
0r	0A	0a	1r
.	.	.	[1a
=3	=3	=3	=3
0D	0d	1.f	1a]
.	.	.	[1dd
.	.	4e\	.
.	.	4d\	.
=4	=4	=4	=4
[0G	1.B-	0d	2dd\]
.	.	.	2cc\
.	.	.	[1b-
.	4A/	.	.
.	4G/	.	.
=5	=5	=5	=5
1G]	0G	0r	2b-\]
.	.	.	4a/
.	.	.	4g/
1E	.	.	[1g
=6	=6	=6	=6
0C	0r	1e	2g/]
.	.	.	4a/
.	.	.	4b-\
.	.	2e\	2cc\
.	.	2e\	[2a/
=7	=7	=7	=7
1D	1A	1d	2a/]
.	.	.	4g/
.	.	.	4f/
2A\	2A/	1c	2e/
2A\	2A/	.	2f/
=8	=8	=8	=8
1B-	1G	0r	2g/
.	.	.	2b-\
1c	1F	.	2a/
.	.	.	[2cc\
=9	=9	=9	=9
0A	1r	1e	4cc\]
.	.	.	4b-\
.	.	.	4a/
.	.	.	4g/
.	1A	1a	1a
=10	=10	=10	=10
1r	0d	1.f	1a
1D	.	.	[1dd
.	.	4e\	.
.	.	4d\	.
=11	=11	=11	=11
1G	1.B-	0d	2dd\]
.	.	.	4cc\
.	.	.	4b-\
[1G	.	.	[1b-
.	4A/	.	.
.	4G/	.	.
=12	=12	=12	=12
2G\]	1G	1r	2b-\]
4F\	.	.	4a/
4E\	.	.	4g/
2F\	1r	1d	2a/
2G\	.	.	2b-\
=13	=13	=13	=13
1C	1G	1e	2g/
.	.	.	2.cc\
2.F\	1A	1c	.
.	.	.	4b-\
.	.	.	[2a/
4E\	.	.	.
=14	=14	=14	=14
1D	1F	1d	2a/]
.	.	.	4g/
.	.	.	4f/
[1C	1G	[1e	1e
=15	=15	=15	=15
1C]	0A	1e]	1r
1D	.	[1f	1a
=16	=16	=16	=16
2BB-/	0B-	1f]	1.dd
2BB-/	.	.	.
1B-	.	1d	.
.	.	.	4cc\
.	.	.	4b-\
=17	=17	=17	=17
0r	1G	1r	2.b-\
.	.	.	8a/L
.	.	.	8g/J
.	1r	1d	2a/
.	.	.	2b-\
=18	=18	=18	=18
2r	1G	1e	1g
2C/	.	.	.
1F	1A	1c	1r
=19	=19	=19	=19
1D	1F	1d	1r
[1C	1G	[1e	2r
.	.	.	2g/
=20	=20	=20	=20
1C]	0A	1e]	1cc
1D	.	[1f	2r
.	.	.	2a/
=21	=21	=21	=21
2BB-/	0B-	1f]	1.dd
2BB-/	.	.	.
1B-	.	1d	.
.	.	.	2dd\
=22	=22	=22	=22
0r	1G	1r	1.b-
.	1r	1d	.
.	.	.	2g/
=23	=23	=23	=23
0r	1G	1g	2g/
.	.	.	2g/
.	1c	1g	2.e/
.	.	.	4c/
=24	=24	=24	=24
1A	1c	1e	1c
2c\	1A	1f	2r
2c\	.	.	2c/
=25	=25	=25	=25
1B-	1B-	1g	2d/
.	.	.	2d/
1A	1c	1a	1e
=26	=26	=26	=26
1D	1d	1r	2.f/
.	.	.	4e/
1A	1r	1e	1c
=27	=27	=27	=27
0r	0A	0a	0r
=28	=28	=28	=28
0D	0d	1.f	1a
.	.	.	[1dd
.	.	4e\	.
.	.	4d\	.
=29	=29	=29	=29
[0G	1.B-	0d	2dd\]
.	.	.	4cc\
.	.	.	4b-\
.	.	.	[1b-
.	4A/	.	.
.	4G/	.	.
=30	=30	=30	=30
1G]	0G	0r	2b-\]
.	.	.	4a/
.	.	.	4g/
1E	.	.	[1g
=31	=31	=31	=31
0C	0r	1e	2g/]
.	.	.	4a/
.	.	.	4b-\
.	.	2e\	2cc\
.	.	2e\	[2a/
=32	=32	=32	=32
1D	1A	1d	2a/]
.	.	.	4g/
.	.	.	4f/
2A\	2A/	1c	2e/
2A\	2A/	.	2f/
=33	=33	=33	=33
1B-	1G	0r	2g/
.	.	.	2b-\
1c	1F	.	2a/
.	.	.	[2cc\
=34	=34	=34	=34
0A	1r	1e	4cc\]
.	.	.	4b-\
.	.	.	4a/
.	.	.	4g/
.	1A	1a	1a
=35	=35	=35	=35
1r	0d	1.f	1a
1D	.	.	[1dd
.	.	4e\	.
.	.	4d\	.
=36	=36	=36	=36
0G	1.B-	[0dl	2dd\]
.	.	.	4cc\
.	.	.	4b-\
.	.	.	[1b-
.	4A/	.	.
.	4G/	.	.
=37	=37	=37	=37
1.B-	[0Gl	0d_	2b-\]
.	.	.	4a/
.	.	.	4g/
.	.	.	[1gl
4A\	.	.	.
4G\	.	.	.
=38	=38	=38	=38
0Gl	0G]	0d]	0g]
==	==	==	==
*-	*-	*-	*-
!!!RDF**kern: l=long note in original notation
!!!RDF**kern: i=editorial accidental
!!!ENC:	Will Watson 23/10/11
!!!END:	2011/10/11/
!!!EED:	Jesse Rodin
!!!EEV:	2011/12/16/
!!attribution-level@Jos: 3 (tricky)
!!!ONB:	Translated from MusicXML and edited on 2011/12/16/ by Craig Sapp
!!muse2ps: C^@{COA}?\n@{SCT}^i2I150v90,90,90,150Q16
